images/icon_back.svg

<svg width="32" height="32" viewBox="0 0 32 32" fill="none" xmlns="http://www.w3.org/2000/svg">
<g clip-path="url(#clip0_51821_20908)">
<path d="M26 25.9997C25.7529 25.9996 25.5146 25.9081 25.331 25.7427L16.983 18.2297C16.6704 17.9484 16.4204 17.6044 16.2493 17.2203C16.0782 16.8361 15.9897 16.4202 15.9897 15.9997C15.9897 15.5791 16.0782 15.1633 16.2493 14.7791C16.4204 14.3949 16.6704 14.051 16.983 13.7697L25.331 6.25668C25.5282 6.07925 25.7878 5.98742 26.0527 6.00139C26.3176 6.01536 26.5661 6.13399 26.7435 6.33118C26.9209 6.52837 27.0127 6.78796 26.9988 7.05286C26.9848 7.31775 26.8662 7.56625 26.669 7.74368L18.321 15.2567C18.2166 15.3505 18.133 15.4652 18.0759 15.5934C18.0187 15.7215 17.9892 15.8603 17.9892 16.0007C17.9892 16.141 18.0187 16.2798 18.0759 16.408C18.133 16.5362 18.2166 16.6509 18.321 16.7447L26.669 24.2577C26.8188 24.3931 26.9242 24.5707 26.9712 24.7671C27.0181 24.9636 27.0045 25.1696 26.9321 25.3582C26.8597 25.5467 26.7319 25.7089 26.5655 25.8235C26.3991 25.938 26.202 25.9994 26 25.9997Z" fill="#00688E"/>
<path d="M14 25.9997C13.7529 25.9996 13.5146 25.9081 13.331 25.7427L4.98298 18.2297C4.67037 17.9484 4.42039 17.6044 4.24928 17.2203C4.07817 16.8361 3.98975 16.4202 3.98975 15.9997C3.98975 15.5791 4.07817 15.1633 4.24928 14.7791C4.42039 14.3949 4.67037 14.051 4.98298 13.7697L13.331 6.25668C13.4286 6.16882 13.5426 6.10106 13.6664 6.05726C13.7903 6.01345 13.9215 5.99447 14.0527 6.00139C14.1838 6.00831 14.3123 6.04099 14.4309 6.09758C14.5494 6.15416 14.6556 6.23354 14.7435 6.33118C14.8313 6.42881 14.8991 6.5428 14.9429 6.66663C14.9867 6.79045 15.0057 6.92169 14.9988 7.05286C14.9919 7.18402 14.9592 7.31253 14.9026 7.43107C14.846 7.5496 14.7666 7.65582 14.669 7.74368L6.32098 15.2567C6.21656 15.3505 6.13305 15.4652 6.07588 15.5934C6.01871 15.7215 5.98916 15.8603 5.98916 16.0007C5.98916 16.141 6.01871 16.2798 6.07588 16.408C6.13305 16.5362 6.21656 16.6509 6.32098 16.7447L14.669 24.2577C14.8189 24.3931 14.9242 24.5707 14.9712 24.7671C15.0181 24.9636 15.0045 25.1696 14.9321 25.3582C14.8597 25.5467 14.7319 25.7089 14.5655 25.8235C14.3991 25.938 14.202 25.9994 14 25.9997Z" fill="#00688E"/>
</g>
<defs>
<clipPath id="clip0_51821_20908">
<rect width="32" height="32" fill="white"/>
</clipPath>
</defs>
</svg>

<?xml version="1.0" encoding="utf-8"?>
<!-- Generator: Adobe Illustrator 19.0.0, SVG Export Plug-In . SVG Version: 6.00 Build 0)  -->
<svg version="1.1" id="Layer_1" xmlns="http://www.w3.org/2000/svg" xmlns:xlink="http://www.w3.org/1999/xlink" x="0px" y="0px"
	 viewBox="0 0 32 32" style="enable-background:new 0 0 32 32;" xml:space="preserve">
<style type="text/css">
	.st0{clip-path:url(#SVGID_2_);}
	.st1{fill:#05BD83;}
</style>
<g>
	<defs>
		<rect id="SVGID_1_" width="32" height="32"/>
	</defs>
	<clipPath id="SVGID_2_">
		<use xlink:href="#SVGID_1_"  style="overflow:visible;"/>
	</clipPath>
	<g class="st0">
		<path class="st1" d="M26,26c-0.2,0-0.5-0.1-0.7-0.3L17,18.2c-0.3-0.3-0.6-0.6-0.7-1C16.1,16.8,16,16.4,16,16
			c0-0.4,0.1-0.8,0.3-1.2c0.2-0.4,0.4-0.7,0.7-1l8.3-7.5C25.5,6.1,25.8,6,26.1,6s0.5,0.1,0.7,0.3C26.9,6.5,27,6.8,27,7.1
			c0,0.3-0.1,0.5-0.3,0.7l-8.3,7.5c-0.1,0.1-0.2,0.2-0.2,0.3C18,15.7,18,15.9,18,16c0,0.1,0,0.3,0.1,0.4c0.1,0.1,0.1,0.2,0.2,0.3
			l8.3,7.5c0.1,0.1,0.3,0.3,0.3,0.5c0,0.2,0,0.4,0,0.6c-0.1,0.2-0.2,0.4-0.4,0.5C26.4,25.9,26.2,26,26,26z"/>
		<path class="st1" d="M14,26c-0.2,0-0.5-0.1-0.7-0.3L5,18.2c-0.3-0.3-0.6-0.6-0.7-1C4.1,16.8,4,16.4,4,16c0-0.4,0.1-0.8,0.3-1.2
			c0.2-0.4,0.4-0.7,0.7-1l8.3-7.5c0.1-0.1,0.2-0.2,0.3-0.2C13.8,6,13.9,6,14.1,6c0.1,0,0.3,0,0.4,0.1c0.1,0.1,0.2,0.1,0.3,0.2
			c0.1,0.1,0.2,0.2,0.2,0.3C15,6.8,15,6.9,15,7.1c0,0.1,0,0.3-0.1,0.4c-0.1,0.1-0.1,0.2-0.2,0.3l-8.3,7.5c-0.1,0.1-0.2,0.2-0.2,0.3
			C6,15.7,6,15.9,6,16c0,0.1,0,0.3,0.1,0.4c0.1,0.1,0.1,0.2,0.2,0.3l8.3,7.5c0.1,0.1,0.3,0.3,0.3,0.5c0,0.2,0,0.4,0,0.6
			c-0.1,0.2-0.2,0.4-0.4,0.5C14.4,25.9,14.2,26,14,26z"/>
	</g>
</g>
</svg>
